symbolic/48x48/apps/lplayer.svg

<svg xmlns="http://www.w3.org/2000/svg" width="48" height="48" version="1.1">
 <rect style="fill:#4f4f4f" width="40" height="40" x="4" y="4" ry="20"/>
 <path style="opacity:0.1;fill:#f4f4f7" d="M 12.89,7.35 C 7.5226,10.929 3.9974,17.036 3.9974,23.998 l 16,0 c 0,-1.621 0.96933,-3.0084 2.3555,-3.6367 l -9.462,-13.012 z"/>
 <path style="opacity:0.1;fill:#f4f4f7" d="m 35.06,40.6 c 5.3674,-3.5793 8.8926,-9.6857 8.8926,-16.648 l -16,0 c 0,1.621 -0.96933,3.0084 -2.3555,3.6367 l 9.4629,13.012 z"/>
 <path style="opacity:0.2" d="m 24,18 c -3.878,0 -7,3.122 -7,7 0,3.878 3.122,7 7,7 3.878,0 7,-3.122 7,-7 0,-3.878 -3.122,-7 -7,-7 z"/>
 <path style="fill:#f4f4f7" d="M 24 17 L 24 31 C 27.878 31 31 27.878 31 24 C 31 20.122 27.878 17 24 17 z"/>
 <path style="fill:#fe4b4b" d="m 24,17 v 14 c -3.878,0 -7,-3.122 -7,-7 0,-3.878 3.122,-7 7,-7 z"/>
 <rect style="fill:#3f3f3f" width="4" height="4" x="22" y="-26" ry="2" transform="scale(1,-1)"/>
 <path style="opacity:0.1;fill:#f4f4f7" d="m 24,4 c 11.07,0 19.982,8.92 19.982,20 0,0.16787 -0.008,0.33314 -0.0117,0.5 C 43.7063,13.654 34.9023,5 24.0003,5 13.0983,5 4.2943,13.654 4.0303,24.5 4.0269,24.333 4.0192,24.168 4.0192,24 4.0192,12.92 12.931,4 24.0012,4 Z"/>
 <path style="opacity:0.2" d="M 4.0117,24.5 C 4.0077,24.667 4,24.832 4,25 4,36.08 12.92,45 24,45 35.08,45 44,36.08 44,25 44,24.832 43.992,24.667 43.988,24.5 43.724,35.347 34.912,44 24,44 13.088,44 4.276,35.347 4.012,24.5 Z"/>
</svg>

<svg xmlns="http://www.w3.org/2000/svg" width="48" height="48"><rect style="fill:#4f4f4f" width="40" height="40" x="4" y="4" ry="20"/><path style="opacity:.1;fill:#f4f4f7" d="M12.89 7.35a19.945 19.945 0 0 0-8.893 16.648h16c0-1.621.97-3.008 2.356-3.637L12.89 7.35zM35.06 40.6a19.945 19.945 0 0 0 8.893-16.648h-16c0 1.621-.97 3.008-2.356 3.637L35.06 40.6z"/><path style="opacity:.2" d="M24 18c-3.878 0-7 3.122-7 7s3.122 7 7 7 7-3.122 7-7-3.122-7-7-7z"/><path style="fill:#f4f4f7" d="M24 17v14c3.878 0 7-3.122 7-7s-3.122-7-7-7z"/><path style="fill:#fe4b4b" d="M24 17v14c-3.878 0-7-3.122-7-7s3.122-7 7-7z"/><rect style="fill:#3f3f3f" width="4" height="4" x="22" y="-26" ry="2" transform="scale(1 -1)"/><path style="opacity:.1;fill:#f4f4f7" d="M24 4c11.07 0 19.982 8.92 19.982 20 0 .168-.008.333-.012.5C43.706 13.654 34.902 5 24 5S4.294 13.654 4.03 24.5c-.003-.167-.01-.332-.01-.5C4.02 12.92 12.93 4 24 4z"/><path style="opacity:.2" d="M4.012 24.5c-.004.167-.012.332-.012.5 0 11.08 8.92 20 20 20s20-8.92 20-20c0-.168-.008-.333-.012-.5A19.95 19.95 0 0 1 24 44 19.95 19.95 0 0 1 4.012 24.5z"/></svg>
